X: 10796
T: Drag Her Round The Road
R: reel
M: 4/4
K: Eminor
GA|BEED E2GE|DEB,D D2B,D|BEED E2DE|GABG A2GA|
BEED E2GE|DEB,D D2B,D|BEED E2DE|GABG A2GF||
G3F GBdB|cBAB cded|B3A GA (3Bcd|dBGB A2 GF|
G3F GBdB|cBAB cdef|gedB c2ge|dBGB A2||

